static/images/platforms/dark/dart.svg

<svg xmlns="http://www.w3.org/2000/svg" viewBox="0 0 128 128"><path d="M28.456 96.488 8.732 76.765c-2.34-2.4-3.789-5.79-3.789-9.104 0-1.534.865-3.933 1.517-5.306l18.206-37.923 3.79 72.056ZM95.968 28.222 76.244 8.498c-1.721-1.729-5.307-3.789-8.34-3.789-2.611 0-5.17.525-6.824 1.517L24.676 24.432l71.292 3.79ZM51.969 120.001h47.788V99.523L64.106 88.14 31.49 99.523z" style="stroke-linecap:square;stroke-linejoin:round;stroke-width:7px;fill:#e4e4e7"/><path d="M24.666 85.868c0 6.085.764 7.577 3.79 10.62l3.034 3.035h68.267L66.386 61.6l-41.72-37.168v61.436Z" style="stroke-linecap:square;stroke-linejoin:round;stroke-width:7px;fill:#e4e4e7"/><path d="M85.347 24.424H24.666l75.091 75.091h20.478V52.489L95.959 28.214c-3.407-3.417-6.432-3.79-10.612-3.79Z" style="stroke-linecap:square;stroke-linejoin:round;stroke-width:7px;fill:#e4e4e7"/><path d="M29.219 97.243c-3.035-3.043-3.789-6.044-3.789-11.375V25.187l-.754-.755v61.436c-.01 5.331-.01 6.806 4.543 11.375l2.271 2.272-2.271-2.272ZM95.968 28.222c-3.763-3.764-6.841-3.79-11.375-3.79H24.676l.754.755h59.163c2.263 0 7.976-.381 11.375 3.035Z" opacity=".2" style="stroke-linecap:square;stroke-linejoin:round;stroke-width:7px;fill:#e4e4e7"/></svg>

<?xml version="1.0" encoding="utf-8"?>
<svg viewBox="0 0 128 128" xmlns="http://www.w3.org/2000/svg">
  <text transform="matrix(1, 0, 0, 1, 69.784261, 14.418589)" style="fill: rgb(228, 228, 231); font-family: Roboto; font-size: 36px; stroke-linecap: square; stroke-linejoin: round; stroke-width: 7px; white-space: pre;"/>
  <path d="M 28.456 96.488 L 8.732 76.765 C 6.392 74.365 4.943 70.975 4.943 67.661 C 4.943 66.127 5.808 63.728 6.46 62.355 L 24.666 24.432 L 28.456 96.488 Z" style="stroke-linecap: square; stroke-linejoin: round; stroke-width: 7px; fill: rgb(228, 228, 231);"/>
  <path d="M 95.968 28.222 L 76.244 8.498 C 74.523 6.769 70.937 4.709 67.904 4.709 C 65.293 4.709 62.734 5.234 61.08 6.226 L 24.676 24.432 L 95.968 28.222 Z" style="stroke-linecap: square; stroke-linejoin: round; stroke-width: 7px; fill: rgb(228, 228, 231);"/>
  <polygon points="51.969 120.001 99.757 120.001 99.757 99.523 64.106 88.14 31.49 99.523" style="stroke-linecap: square; stroke-linejoin: round; stroke-width: 7px; fill: rgb(228, 228, 231);"/>
  <path d="M 24.666 85.868 C 24.666 91.953 25.43 93.445 28.456 96.488 L 31.49 99.523 L 99.757 99.523 L 66.386 61.6 L 24.666 24.432 L 24.666 85.868 Z" style="stroke-linecap: square; stroke-linejoin: round; stroke-width: 7px; fill: rgb(228, 228, 231);"/>
  <path d="M 85.347 24.424 L 24.666 24.424 L 99.757 99.515 L 120.235 99.515 L 120.235 52.489 L 95.959 28.214 C 92.552 24.797 89.527 24.424 85.347 24.424 Z" style="stroke-linecap: square; stroke-linejoin: round; stroke-width: 7px; fill: rgb(228, 228, 231);"/>
  <path opacity="0.2" enable-background="new    " d="M 29.219 97.243 C 26.184 94.2 25.43 91.199 25.43 85.868 L 25.43 25.187 L 24.676 24.432 L 24.676 85.868 C 24.666 91.199 24.666 92.674 29.219 97.243 L 31.49 99.515 L 31.49 99.515 L 29.219 97.243 Z" style="stroke-linecap: square; stroke-linejoin: round; stroke-width: 7px; fill: rgb(228, 228, 231);"/>
  <path opacity="0.2" enable-background="new    " d="M 95.968 28.222 C 92.205 24.458 89.127 24.432 84.593 24.432 L 24.676 24.432 L 25.43 25.187 L 84.593 25.187 C 86.856 25.187 92.569 24.806 95.968 28.222 L 95.968 28.222 Z" style="stroke-linecap: square; stroke-linejoin: round; stroke-width: 7px; fill: rgb(228, 228, 231);"/>
</svg>
